X: 42
M:C|
L:1/8
K:Amix
vdc"^Segno"|]BE~E2 Bdcd|BE~E2 dAFA|BE~E2 Bcde|fdec dAFA|\
|:Beec d2dc|Beec dAFA|Beec dfag|fedc dAFA|\


